X:1
T:Title
L:1/8
M:9/8
I:linebreak $
K:G
V:1 treble nm="Voice"
V:1
"G" B3 G3"D" F2 A |"C" c3 A3 A2 G |"D" F3 D3 E2 F |1"G" (G3 G3) D2 G :|2"G" (G3 G3) B2 c || %5
"G" d3 c3 B2 d |"D" c3 c3 A2 B | c3 B3 A2 G |"G" B3- B3 B2 B |"D" A3 d3 d2 d |"G" B3 G3"D" A2 G | %11
 F3 D3 E2 F |"G" G3- G3 D2 G | %13
